html/assets/images/static/404.svg

<svg width="962" height="487" fill="none" xmlns="http://www.w3.org/2000/svg"><path d="M388.694 395.749c-15.853-19.843-24.855-49.529-26.999-89.04-2.132-39.287 3.605-69.656 17.221-91.102 13.616-21.447 34.373-32.929 62.283-34.446 27.907-1.514 49.791 7.657 65.645 27.5 15.854 19.852 24.851 49.419 26.983 88.706 2.132 39.292-3.605 69.71-17.213 91.27-13.607 21.56-34.368 33.095-62.271 34.612-27.911 1.514-49.787-7.649-65.645-27.5h-.004z" fill="#fff"/><path d="M388.694 395.749c-15.853-19.843-24.855-49.529-26.999-89.04-2.132-39.287 3.605-69.656 17.221-91.102 13.616-21.447 34.373-32.929 62.283-34.446 27.907-1.514 49.791 7.657 65.645 27.5 15.854 19.852 24.851 49.419 26.983 88.706 2.132 39.292-3.605 69.71-17.213 91.27-13.607 21.56-34.368 33.095-62.271 34.612-27.911 1.514-49.787-7.649-65.645-27.5h-.004z" fill="#B0E4E4"/><path d="M484.522 366.707c6.161-14.322 8.423-36.668 6.775-67.029-1.66-30.58-6.327-52.547-13.99-65.901-7.666-13.353-19.092-19.615-34.27-18.793-15.183.826-25.86 8.345-32.025 22.557-6.173 14.22-8.432 36.505-6.784 66.861 1.648 30.361 6.308 52.328 13.99 65.901 7.675 13.578 19.105 19.953 34.288 19.127 15.178-.822 25.851-8.398 32.016-22.728v.005z" fill="#fff"/><path d="M733.645 363.447v-1.775h33.47v1.775h-33.47zm-616.282 0v-1.775h33.471v1.775h-33.471z" fill="#00999A" stroke="#00999A"/><path d="M737.665 418.663h-34.063a.204.204 0 00-.204.203v1.445c0 .112.092.203.204.203h34.063a.203.203 0 00.204-.203v-1.445a.203.203 0 00-.204-.203z" fill="#C4D4DC"/><path d="M167.615 123.815c6.466 0 12.086-4.695 12.961-11.099.154-1.148.236-2.324.236-3.512 0-14.26-11.561-25.82-25.824-25.82a27.9 27.9 0 00-1.741.065c-1.18-14.061-12.961-25.108-27.329-25.108-15.15 0-27.435 12.28-27.435 27.432 0 .67.033 1.334.082 1.997a27.35 27.35 0 00-14.641-3.442c-13.779.63-25.104 11.653-26.076 25.409-.008.11-.016.22-.02.326-.444 7.482 5.607 13.756 13.102 13.756h96.685v-.004zm674.988 63.322c20.42 0 21.551-30.727 1.156-31.72a33.994 33.994 0 00-12.114 1.595c-2.731-16.633-17.164-29.323-34.572-29.323s-32.473 13.259-34.731 30.429a32.177 32.177 0 00-13.941-3.157c-2.787 0-5.498.354-8.078 1.017-17.855 4.598-14.107 31.163 4.33 31.163h97.958l-.008-.004zM664.447 59.436c20.415 0 21.542-30.719 1.156-31.712a34.138 34.138 0 00-12.114 1.59C650.758 12.687 636.329.001 618.929.001c-17.4 0-32.465 13.256-34.723 30.422a32.17 32.17 0 00-13.937-3.157 32.45 32.45 0 00-8.077 1.017c-17.852 4.597-14.104 31.15 4.329 31.15h97.926v.004zm-8.74 56.445c10.71 11.307 13.64 11.384 24.948.676-11.308 10.708-11.386 13.638-.675 24.945-10.711-11.307-13.64-11.384-24.949-.676 11.309-10.708 11.386-13.638.676-24.945zM264.285 28.302c10.71 11.307 13.64 11.384 24.948.675-11.308 10.71-11.385 13.639-.675 24.946-10.71-11.307-13.64-11.385-24.949-.676 11.309-10.709 11.386-13.638.676-24.945zM158.258 189.838c10.71 11.307 13.64 11.384 24.948.676-11.308 10.708-11.386 13.638-.676 24.945-10.71-11.307-13.64-11.384-24.948-.676 11.308-10.708 11.386-13.638.676-24.945zM35.691 161.162c10.71 11.307 13.64 11.384 24.948.675-11.308 10.709-11.385 13.639-.675 24.946-10.71-11.307-13.64-11.385-24.948-.676 11.308-10.709 11.385-13.638.675-24.945zm744.973 84.458c10.71 11.307 13.64 11.385 24.948.676-11.308 10.709-11.386 13.638-.675 24.945-10.711-11.307-13.64-11.384-24.949-.675 11.309-10.709 11.386-13.639.676-24.946z" fill="#00999A" fill-opacity=".16"/><path d="M394.765 171.391l97.796-28.717a3.452 3.452 0 002.34-4.289L454.986 2.482a3.452 3.452 0 00-4.289-2.34l-66.959 19.66a3.457 3.457 0 00-2.027 1.6l-22.145 38.66a3.46 3.46 0 00-.317 2.69l31.219 106.299a3.451 3.451 0 004.289 2.34h.008z" fill="#fff"/><path d="M394.765 171.391l97.796-28.717a3.452 3.452 0 002.34-4.289L454.986 2.482a3.452 3.452 0 00-4.289-2.34l-66.959 19.66a3.457 3.457 0 00-2.027 1.6l-22.145 38.66a3.46 3.46 0 00-.317 2.69l31.219 106.299a3.451 3.451 0 004.289 2.34h.008z" fill="#00999A" fill-opacity=".08"/><path d="M383.273 21.91l8.163 27.802a3.706 3.706 0 01-2.491 4.589l-29.062 8.67" fill="#00999A" fill-opacity=".05"/><path d="M402.372 124.312l-5.54 1.627a.814.814 0 00-.552 1.011l6.841 23.286a.814.814 0 001.01.551l5.541-1.627a.814.814 0 00.551-1.01l-6.841-23.286a.815.815 0 00-1.01-.552zm30.488-1.243l-5.54 1.627a.815.815 0 00-.552 1.01l4.755 16.186a.814.814 0 001.011.551l5.54-1.627a.814.814 0 00.551-1.01l-4.755-16.185a.814.814 0 00-1.01-.552zm12.113-11.273l-5.54 1.627a.814.814 0 00-.551 1.01l6.841 23.286a.813.813 0 001.01.552l5.54-1.627a.815.815 0 00.552-1.01l-6.841-23.286a.814.814 0 00-1.011-.552zm-30.488 1.243l-5.54 1.627a.815.815 0 00-.552 1.01l8.926 30.384a.814.814 0 001.011.551l5.54-1.627a.814.814 0 00.551-1.01l-8.926-30.383a.814.814 0 00-1.01-.552z" fill="#B0E4E4"/><path d="M381.727 77.436l65.677-19.282m-62.549 29.934l65.674-19.286M387.98 98.735l65.678-19.285" stroke="#B0E4E4" stroke-width="6" stroke-linecap="round" stroke-linejoin="round"/><path d="M529.388 127.476l-.001-.001-32.333-11.61-.993 1.793 29.747 17.435s0 0 0 0a1.348 1.348 0 001.903-.589l.037-.08.005-.005 2.4-5.1-.765-1.843zm0 0c.75.266 1.104 1.12.765 1.843l-.765-1.843z" fill="#00999A" stroke="#00999A"/><path d="M472.265 133.946c14.646 0 26.519-11.871 26.519-26.516 0-14.644-11.873-26.516-26.519-26.516-14.646 0-26.519 11.872-26.519 26.516 0 14.645 11.873 26.516 26.519 26.516z" fill="#B0E4E4"/><path d="M472.266 128.417c11.592 0 20.989-9.396 20.989-20.987 0-11.59-9.397-20.986-20.989-20.986s-20.989 9.396-20.989 20.986c0 11.591 9.397 20.987 20.989 20.987z" fill="#fff"/><path d="M472.265 133.946c14.646 0 26.519-11.871 26.519-26.516 0-14.644-11.873-26.516-26.519-26.516-14.646 0-26.519 11.872-26.519 26.516 0 14.645 11.873 26.516 26.519 26.516z" stroke="#00999A" stroke-width="4" stroke-linecap="round" stroke-linejoin="round"/><path fill-rule="evenodd" clip-rule="evenodd" d="M473.697 115.219a4 4 0 012.479 5.085l-.159.46a4 4 0 11-7.564-2.605l.159-.46a4.001 4.001 0 015.085-2.48zm-1.255-23.964a4 4 0 013.951 4.049l-.159 12.946a4 4 0 01-7.999-.098l.158-12.947a4 4 0 014.049-3.95z" fill="#00999A"/><path d="M727.367 324.035l10.384 51.683-54.878 11.025-10.384-51.683-.098-.49-.491.098-101.858 20.465-8.003-39.833 62.399-159.355 66.469-13.356 26.783 133.285.099.49.49-.098 25.597-5.143 9.48 47.181-25.598 5.143-.49.098.099.49zm-79.749-109.65l-.354-.128-29.567 81.439-.303.836.872-.175 44.151-8.87.49-.098-.099-.491-14.584-72.573-.606.06zm-316.667 90.267l-7.912 47.464-25.75-4.291-.493-.083-.082.494-8.667 51.997-55.214-9.202 8.667-51.997.082-.493-.493-.083-102.482-17.079 6.681-40.078 114.978-126.763 66.876 11.147-22.355 134.1-.082.494.493.082 25.753 4.291zm-69.202-87.09l.293-1.759-1.165 1.351-56.591 65.612-.581.673.878.146 44.419 7.401.493.083.082-.494 12.172-73.013z" fill="#00999A" stroke="#00999A"/><path d="M962 363.943H0v122.061h962V363.943z" fill="#fff"/><path d="M161.673 421.202H127.61a.203.203 0 00-.204.203v1.444c0 .113.091.204.204.204h34.063a.204.204 0 00.204-.204v-1.444a.203.203 0 00-.204-.203zm93.535 0h-34.063a.203.203 0 00-.204.203v1.444c0 .113.091.204.204.204h34.063a.204.204 0 00.204-.204v-1.444a.203.203 0 00-.204-.203zm85.129-21.967h-34.063a.203.203 0 00-.204.203v1.444c0 .113.091.204.204.204h34.063a.204.204 0 00.204-.204v-1.444a.203.203 0 00-.204-.203zm48.414 24.29h-34.063a.203.203 0 00-.204.203v1.445c0 .112.091.203.204.203h34.063a.203.203 0 00.204-.203v-1.445a.203.203 0 00-.204-.203zm119.457 0h-34.063a.203.203 0 00-.204.203v1.445c0 .112.091.203.204.203h34.063a.203.203 0 00.204-.203v-1.445a.203.203 0 00-.204-.203zm133.641-1.371h-34.064a.203.203 0 00-.203.203v1.445c0 .112.091.203.203.203h34.064a.203.203 0 00.203-.203v-1.445a.203.203 0 00-.203-.203zm-424.551-26.479h-34.063a.203.203 0 00-.204.203v1.444c0 .113.091.204.204.204h34.063a.204.204 0 00.204-.204v-1.444a.203.203 0 00-.204-.203zm237.844-.9h-34.064a.203.203 0 00-.203.204v1.444c0 .113.091.204.203.204h34.064a.203.203 0 00.203-.204v-1.444a.203.203 0 00-.203-.204zm242.328-.146h-34.063a.203.203 0 00-.204.203v1.445c0 .112.091.203.204.203h34.063a.203.203 0 00.203-.203v-1.445a.203.203 0 00-.203-.203zm-119.277-8.614h-34.064a.203.203 0 00-.203.204v1.444c0 .113.091.204.203.204h34.064a.203.203 0 00.203-.204v-1.444a.203.203 0 00-.203-.204z" fill="#B0E4E4"/></svg>

<svg width="962" height="487" viewBox="0 0 962 487" fill="none" xmlns="http://www.w3.org/2000/svg">
<path d="M388.694 395.749C372.841 375.906 363.839 346.22 361.695 306.709C359.563 267.422 365.3 237.053 378.916 215.607C392.532 194.16 413.289 182.678 441.199 181.161C469.106 179.647 490.99 188.818 506.844 208.661C522.698 228.513 531.695 258.08 533.827 297.367C535.959 336.659 530.222 367.077 516.614 388.637C503.007 410.197 482.246 421.732 454.343 423.249C426.432 424.763 404.556 415.6 388.698 395.749H388.694Z" fill="white"/>
<path d="M388.694 395.749C372.841 375.906 363.839 346.22 361.695 306.709C359.563 267.422 365.3 237.053 378.916 215.607C392.532 194.16 413.289 182.678 441.199 181.161C469.106 179.647 490.99 188.818 506.844 208.661C522.698 228.513 531.695 258.08 533.827 297.367C535.959 336.659 530.222 367.077 516.614 388.637C503.007 410.197 482.246 421.732 454.343 423.249C426.432 424.763 404.556 415.6 388.698 395.749H388.694Z" fill="#B0E4E4"/>
<path d="M484.522 366.707C490.683 352.385 492.945 330.039 491.297 299.678C489.637 269.098 484.97 247.131 477.307 233.777C469.641 220.424 458.215 214.162 443.037 214.984C427.854 215.81 417.177 223.329 411.012 237.541C404.839 251.761 402.58 274.046 404.228 304.402C405.876 334.763 410.536 356.73 418.218 370.303C425.893 383.881 437.323 390.256 452.506 389.43C467.684 388.608 478.357 381.032 484.522 366.702V366.707Z" fill="white"/>
<path d="M733.645 363.447V361.672H767.115V363.447H733.645Z" fill="#00999A" stroke="#00999A"/>
<path d="M117.363 363.447V361.672H150.834V363.447H117.363Z" fill="#00999A" stroke="#00999A"/>
<path d="M737.665 418.663H703.602C703.49 418.663 703.398 418.754 703.398 418.866V420.311C703.398 420.423 703.49 420.514 703.602 420.514H737.665C737.778 420.514 737.869 420.423 737.869 420.311V418.866C737.869 418.754 737.778 418.663 737.665 418.663Z" fill="#C4D4DC"/>
<path d="M167.615 123.815C174.081 123.815 179.701 119.12 180.576 112.716C180.73 111.568 180.812 110.392 180.812 109.204C180.812 94.9435 169.251 83.3843 154.988 83.3843C154.402 83.3843 153.825 83.4128 153.247 83.4494C152.067 69.3879 140.286 58.3413 125.918 58.3413C110.768 58.3413 98.4832 70.6207 98.4832 85.7726C98.4832 86.4439 98.5157 87.1071 98.5646 87.7703C94.2634 85.3698 89.2542 84.0841 83.9235 84.3282C70.1451 84.9589 58.8205 95.981 57.848 109.737C57.8398 109.847 57.8317 109.957 57.8276 110.063C57.3841 117.545 63.435 123.819 70.9305 123.819H167.615V123.815Z" fill="#00999A" fill-opacity="0.16"/>
<path d="M842.603 187.137C863.023 187.137 864.154 156.41 843.759 155.417C843.202 155.388 842.64 155.376 842.078 155.376C838.436 155.376 834.933 155.954 831.645 157.012C828.914 140.379 814.481 127.689 797.073 127.689C779.665 127.689 764.6 140.948 762.342 158.118C758.122 156.096 753.394 154.961 748.401 154.961C745.614 154.961 742.903 155.315 740.323 155.978C722.468 160.576 726.216 187.141 744.653 187.141H842.611L842.603 187.137Z" fill="#00999A" fill-opacity="0.16"/>
<path d="M664.447 59.4358C684.862 59.4358 685.989 28.717 665.603 27.7242C665.045 27.6958 664.484 27.6835 663.922 27.6835C660.284 27.6835 656.777 28.2613 653.489 29.3151C650.758 12.6863 636.329 0 618.929 0C601.529 0 586.464 13.2559 584.206 30.4218C579.986 28.3996 575.258 27.2645 570.269 27.2645C567.482 27.2645 564.776 27.6184 562.192 28.2816C544.34 32.8793 548.088 59.4317 566.521 59.4317H664.447V59.4358Z" fill="#00999A" fill-opacity="0.16"/>
<path d="M655.707 115.881C666.417 127.188 669.347 127.265 680.655 116.557C669.347 127.265 669.269 130.195 679.98 141.502C669.269 130.195 666.34 130.118 655.031 140.826C666.34 130.118 666.417 127.188 655.707 115.881Z" fill="#00999A" fill-opacity="0.16"/>
<path d="M264.285 28.302C274.995 39.609 277.925 39.6863 289.233 28.9774C277.925 39.6863 277.848 42.6157 288.558 53.9227C277.848 42.6157 274.918 42.5384 263.609 53.2473C274.918 42.5384 274.995 39.609 264.285 28.302Z" fill="#00999A" fill-opacity="0.16"/>
<path d="M158.258 189.838C168.968 201.145 171.898 201.222 183.206 190.514C171.898 201.222 171.82 204.152 182.53 215.459C171.82 204.152 168.89 204.075 157.582 214.783C168.89 204.075 168.968 201.145 158.258 189.838Z" fill="#00999A" fill-opacity="0.16"/>
<path d="M35.6911 161.162C46.4013 172.469 49.3311 172.546 60.6395 161.837C49.3311 172.546 49.2538 175.476 59.964 186.783C49.2538 175.476 46.324 175.398 35.0156 186.107C46.324 175.398 46.4013 172.469 35.6911 161.162Z" fill="#00999A" fill-opacity="0.16"/>
<path d="M780.664 245.62C791.374 256.927 794.304 257.005 805.612 246.296C794.304 257.005 794.226 259.934 804.937 271.241C794.226 259.934 791.297 259.857 779.988 270.566C791.297 259.857 791.374 256.927 780.664 245.62Z" fill="#00999A" fill-opacity="0.16"/>
<path d="M394.765 171.391L492.561 142.674C494.392 142.136 495.442 140.216 494.901 138.385L454.986 2.48183C454.448 0.650909 452.528 -0.39882 450.697 0.14232L383.738 19.8024C382.883 20.0546 382.155 20.6242 381.711 21.4014L359.566 60.0623C359.099 60.8801 358.985 61.8485 359.249 62.7517L390.468 169.051C391.005 170.882 392.926 171.932 394.757 171.391H394.765Z" fill="white"/>
<path d="M394.765 171.391L492.561 142.674C494.392 142.136 495.442 140.216 494.901 138.385L454.986 2.48183C454.448 0.650909 452.528 -0.39882 450.697 0.14232L383.738 19.8024C382.883 20.0546 382.155 20.6242 381.711 21.4014L359.566 60.0623C359.099 60.8801 358.985 61.8485 359.249 62.7517L390.468 169.051C391.005 170.882 392.926 171.932 394.757 171.391H394.765Z" fill="#00999A" fill-opacity="0.08"/>
<path d="M383.273 21.9099L391.436 49.7115C392.009 51.6645 390.894 53.7151 388.945 54.301L359.883 62.9714" fill="#00999A" fill-opacity="0.05"/>
<path d="M402.372 124.312L396.832 125.939C396.4 126.066 396.153 126.518 396.28 126.95L403.121 150.236C403.248 150.667 403.7 150.914 404.131 150.787L409.672 149.16C410.103 149.033 410.35 148.581 410.223 148.15L403.382 124.864C403.255 124.433 402.803 124.186 402.372 124.312Z" fill="#B0E4E4"/>
<path d="M432.86 123.069L427.32 124.696C426.889 124.823 426.642 125.275 426.768 125.706L431.523 141.892C431.65 142.323 432.102 142.57 432.534 142.443L438.074 140.816C438.505 140.689 438.752 140.237 438.625 139.806L433.87 123.621C433.744 123.189 433.291 122.943 432.86 123.069Z" fill="#B0E4E4"/>
<path d="M444.973 111.796L439.433 113.423C439.002 113.55 438.755 114.002 438.882 114.433L445.723 137.719C445.849 138.151 446.302 138.398 446.733 138.271L452.273 136.644C452.704 136.517 452.951 136.065 452.825 135.634L445.984 112.348C445.857 111.916 445.405 111.669 444.973 111.796Z" fill="#B0E4E4"/>
<path d="M414.485 113.039L408.945 114.666C408.514 114.793 408.267 115.245 408.393 115.676L417.319 146.06C417.446 146.491 417.898 146.738 418.33 146.611L423.87 144.984C424.301 144.857 424.548 144.405 424.421 143.974L415.495 113.591C415.369 113.159 414.916 112.913 414.485 113.039Z" fill="#B0E4E4"/>
<path d="M381.727 77.4357L447.404 58.1541" stroke="#B0E4E4" stroke-width="6" stroke-linecap="round" stroke-linejoin="round"/>
<path d="M384.855 88.0876L450.529 68.8019" stroke="#B0E4E4" stroke-width="6" stroke-linecap="round" stroke-linejoin="round"/>
<path d="M387.98 98.7354L453.658 79.4497" stroke="#B0E4E4" stroke-width="6" stroke-linecap="round" stroke-linejoin="round"/>
<path d="M529.388 127.476L529.387 127.475L497.054 115.865L496.061 117.658L525.808 135.093C525.808 135.093 525.808 135.093 525.808 135.093C526.496 135.495 527.377 135.22 527.711 134.504L527.748 134.424L527.753 134.419L530.153 129.319L529.388 127.476ZM529.388 127.476C530.138 127.742 530.492 128.596 530.153 129.319L529.388 127.476Z" fill="#00999A" stroke="#00999A"/>
<path d="M472.265 133.946C486.911 133.946 498.784 122.075 498.784 107.43C498.784 92.786 486.911 80.9145 472.265 80.9145C457.619 80.9145 445.746 92.786 445.746 107.43C445.746 122.075 457.619 133.946 472.265 133.946Z" fill="#B0E4E4"/>
<path d="M472.266 128.417C483.858 128.417 493.255 119.021 493.255 107.43C493.255 95.8398 483.858 86.4439 472.266 86.4439C460.674 86.4439 451.277 95.8398 451.277 107.43C451.277 119.021 460.674 128.417 472.266 128.417Z" fill="white"/>
<path d="M472.265 133.946C486.911 133.946 498.784 122.075 498.784 107.43C498.784 92.786 486.911 80.9145 472.265 80.9145C457.619 80.9145 445.746 92.786 445.746 107.43C445.746 122.075 457.619 133.946 472.265 133.946Z" stroke="#00999A" stroke-width="4" stroke-linecap="round" stroke-linejoin="round"/>
<path fill-rule="evenodd" clip-rule="evenodd" d="M473.697 115.219C475.785 115.938 476.896 118.215 476.176 120.304L476.017 120.764C475.298 122.853 473.022 123.963 470.933 123.244C468.844 122.525 467.734 120.248 468.453 118.159L468.612 117.699C469.332 115.61 471.608 114.5 473.697 115.219Z" fill="#00999A"/>
<path fill-rule="evenodd" clip-rule="evenodd" d="M472.442 91.2547C474.651 91.2818 476.42 93.0945 476.393 95.3035L476.234 108.25C476.207 110.459 474.394 112.228 472.185 112.201C469.976 112.174 468.208 110.361 468.235 108.152L468.393 95.2054C468.42 92.9964 470.233 91.2277 472.442 91.2547Z" fill="#00999A"/>
<path d="M727.367 324.035L737.751 375.718L682.873 386.743L672.489 335.06L672.391 334.57L671.9 334.668L570.042 355.133L562.039 315.3L624.438 155.945L690.907 142.589L717.69 275.874L717.789 276.364L718.279 276.266L743.876 271.123L753.356 318.304L727.758 323.447L727.268 323.545L727.367 324.035ZM647.618 214.385L647.264 214.257L617.697 295.696L617.394 296.532L618.266 296.357L662.417 287.487L662.907 287.389L662.808 286.898L648.224 214.325L647.618 214.385Z" fill="#00999A" stroke="#00999A"/>
<path d="M330.951 304.652L323.039 352.116L297.289 347.825L296.796 347.742L296.714 348.236L288.047 400.233L232.833 391.031L241.5 339.034L241.582 338.541L241.089 338.458L138.607 321.379L145.288 281.301L260.266 154.538L327.142 165.685L304.787 299.785L304.705 300.279L305.198 300.361L330.951 304.652ZM261.749 217.562L262.042 215.803L260.877 217.154L204.286 282.766L203.705 283.439L204.583 283.585L249.002 290.986L249.495 291.069L249.577 290.575L261.749 217.562Z" fill="#00999A" stroke="#00999A"/>
<path d="M962 363.943H0V486.004H962V363.943Z" fill="white"/>
<path d="M161.673 421.202H127.61C127.497 421.202 127.406 421.293 127.406 421.405V422.849C127.406 422.962 127.497 423.053 127.61 423.053H161.673C161.786 423.053 161.877 422.962 161.877 422.849V421.405C161.877 421.293 161.786 421.202 161.673 421.202Z" fill="#B0E4E4"/>
<path d="M255.208 421.202H221.145C221.032 421.202 220.941 421.293 220.941 421.405V422.849C220.941 422.962 221.032 423.053 221.145 423.053H255.208C255.321 423.053 255.412 422.962 255.412 422.849V421.405C255.412 421.293 255.321 421.202 255.208 421.202Z" fill="#B0E4E4"/>
<path d="M340.337 399.235H306.274C306.161 399.235 306.07 399.326 306.07 399.438V400.882C306.07 400.995 306.161 401.086 306.274 401.086H340.337C340.45 401.086 340.541 400.995 340.541 400.882V399.438C340.541 399.326 340.45 399.235 340.337 399.235Z" fill="#B0E4E4"/>
<path d="M388.751 423.525H354.688C354.575 423.525 354.484 423.616 354.484 423.728V425.173C354.484 425.285 354.575 425.376 354.688 425.376H388.751C388.864 425.376 388.955 425.285 388.955 425.173V423.728C388.955 423.616 388.864 423.525 388.751 423.525Z" fill="#B0E4E4"/>
<path d="M508.208 423.525H474.145C474.032 423.525 473.941 423.616 473.941 423.728V425.173C473.941 425.285 474.032 425.376 474.145 425.376H508.208C508.321 425.376 508.412 425.285 508.412 425.173V423.728C508.412 423.616 508.321 423.525 508.208 423.525Z" fill="#B0E4E4"/>
<path d="M641.849 422.154H607.785C607.673 422.154 607.582 422.245 607.582 422.357V423.802C607.582 423.914 607.673 424.005 607.785 424.005H641.849C641.961 424.005 642.052 423.914 642.052 423.802V422.357C642.052 422.245 641.961 422.154 641.849 422.154Z" fill="#B0E4E4"/>
<path d="M217.298 395.675H183.235C183.122 395.675 183.031 395.766 183.031 395.878V397.322C183.031 397.435 183.122 397.526 183.235 397.526H217.298C217.411 397.526 217.502 397.435 217.502 397.322V395.878C217.502 395.766 217.411 395.675 217.298 395.675Z" fill="#B0E4E4"/>
<path d="M455.142 394.775H421.078C420.966 394.775 420.875 394.866 420.875 394.979V396.423C420.875 396.536 420.966 396.627 421.078 396.627H455.142C455.254 396.627 455.345 396.536 455.345 396.423V394.979C455.345 394.866 455.254 394.775 455.142 394.775Z" fill="#B0E4E4"/>
<path d="M697.47 394.629H663.407C663.294 394.629 663.203 394.72 663.203 394.832V396.277C663.203 396.389 663.294 396.48 663.407 396.48H697.47C697.582 396.48 697.673 396.389 697.673 396.277V394.832C697.673 394.72 697.582 394.629 697.47 394.629Z" fill="#B0E4E4"/>
<path d="M578.193 386.015H544.129C544.017 386.015 543.926 386.106 543.926 386.219V387.663C543.926 387.776 544.017 387.867 544.129 387.867H578.193C578.305 387.867 578.396 387.776 578.396 387.663V386.219C578.396 386.106 578.305 386.015 578.193 386.015Z" fill="#B0E4E4"/>
</svg>
